X:1
T:AVE MARIA
T:AVE MARIA
T:Mariano Garau
T:©1978
T:©1978
T:©1978
T:©1978
C:Mariano Garau
Z:©1978
%%score [ 1 2 3 4 ]
L:1/8
Q:1/4=88
M:2/2
K:Emin
V:1 treble nm="Soprano" snm="S"
V:2 treble nm="Contralto" snm="C"
V:3 treble-8 nm="Tenore" snm="T"
V:4 bass nm="Basso" snm="B"
V:1
"^Adagio" G4 E2 E2 | (D4 C4) | E8 | A4 B2 c2 | =F4 F4 | G4 A2 B2 | E4 E4 | e4 (d2 c2) | %8
w: A- ve Ma-|ri- *|a,|gra- ti- a|ple- na|Do- mi- nus|te- cum.|A- ve _|
 (B2 A2) (A2 G)F | G8 | F4 (G2 A2) | A3 G G4 | A4 B2 c2 | c3 B B4 | ^c4 d2 e2 | e4 d4 | %16
w: Ma- * ri- * *|a|Be- ne- *|di- cta tu|in mu- li-|e- ri- bus|et be- ne-|di- ctus|
 g2 g2 f2 e2 | e2 ^c2 (^d2 B2) | e8 | B4 A2 G2 | d4 d4 | c4 (B2 A2) | B4 B4 | e4 d2 d2 | c4 c4 | %25
w: fru- ctus ven- tris|tu- i Je- *|sus.|San- cta Ma-|ri- a,|Ma- ter _|De- i,|o- ra pro|no- bis|
 B4 (A2 G2) | A3 A A4 | G4 F2 F2 | E4 E4 | c4 c4 | B4 B4 | (A4 E4- | E4 ^D4) | !fermata!E8 |] %34
w: pec- ca- *|to- ri- bus|nunc et in|ho- ra|mor- tis|no- strae.|A- *||men.|
V:2
 E4 C2 C2 | C8 | (E2 D2) C4 | E4 E2 E2 | (=F2 E2) (D2 C2) | B,4 B,2 B,2 | (E2 D2) (C2 B,2) | %7
w: A- ve Ma-|ri-|a, _ _|gra- ti- a|ple- * na _|Do- mi- nus|te- * cum. _|
 E4 E4 | E4 ^D4 | E8 | ^D4 D4 | E3 E E4 | F4 F2 F2 | G3 G G4 | ^A4 A2 A2 | B4 B4 | ^A2 A2 A2 A2 | %17
w: A- ve|Ma- ri-|a|Be- ne-|di- cta tu|in mu- li-|e- ri- bus|et be- ne-|di- ctus|fru- ctus ven- tris|
 B2 B2 B4 | B8 | G4 G2 G2 | A4 A4 | A4 (G2 F2) | G4 G4 | G4 G2 G2 | G4 F4 | G4 (F2 E2) | F3 F F4 | %27
w: tu- i Je-|sus.|San- cta Ma-|ri- a,|Ma- ter _|De- i,|o- ra pro|no- bis|pec- ca- *|to- ri- bus|
 E4 ^D2 D2 | E4 E4 | E4 E4 | E4 E4 | (E8 | B,8) | !fermata!B,8 |] %34
w: nunc et in|ho- ra|mor- tis|no- strae.|A-||men.|
V:3
 c4 G2 G2 | ^G8 | G8 | c4 c2 c2 | A4 A4 | G4 G2 G2 | ^G4 G4 | A4 c4 | c4 B4 | B8 | B4 B4 | %11
w: A- ve Ma-|ri-|a,|gra- ti- a|ple- na|Do- mi- nus|te- cum.|A- ve|Ma- ri-|a|Be- ne-|
 B3 B B4 | d4 d2 d2 | d3 d d4 | f4 f2 f2 | f4 f4 | e2 e2 e2 e2 | f2 f2 f4 | g8 | d4 d2 d2 | d4 d4 | %21
w: di- cta tu|in mu- li-|e- ri- bus|et be- ne-|di- ctus|fru- ctus ven- tris|tu- i Je-|sus.|San- cta Ma-|ri- a,|
 e4 e4 | e4 e4 | e4 e2 e2 | e4 d4 | d4 d4 | d3 d d4 | B4 B2 A2 | G4 G4 | A4 A4 | G4 G4 | (G8- | %32
w: Ma- ter|De- i,|o- ra pro|no- bis|pec- ca-|to- ri- bus|nunc et in|ho- ra|mor- tis|no- strae.|A-|
 G4) F4 | !fermata!G8 |] %34
w: |men.|
V:4
 C,4 C,2 C,2 | C,8 | (C,6 B,,2) | A,,4 A,,2 A,,2 | D,4 D,4 | G,4 G,2 G,2 | E,4 E,4 | C,4 A,4 | %8
w: A- ve Ma-|ri-|a, _|gra- ti- a|ple- na|Do- mi- nus|te- cum.|A- ve|
 (G,2 F,2) F,4 | E,8 | B,,4 B,,4 | E,3 E, E,4 | D,4 D,2 D,2 | G,3 G, G,4 | F,4 F,2 F,2 | B,4 B,4 | %16
w: Ma- * ri-|a|Be- ne-|di- cta tu|in mu- li-|e- ri- bus|et be- ne-|di- ctus|
 ^C2 C2 C2 C2 | B,2 B,2 B,4 | E,8 | G,4 G,2 G,2 | F,4 F,4 | E,4 E,4 | E,4 E,4 | C4 B,2 B,2 | %24
w: fru- ctus ven- tris|tu- i Je-|sus.|San- cta Ma-|ri- a,|Ma- ter|De- i,|o- ra pro|
 A,4 A,4 | G,4 D,4 | D,3 D, D,4 | E,4 B,,2 B,,2 | C,4 (C,2 B,,2) | A,,4 A,,4 | E,4 E,4 | (C,8 | %32
w: no- bis|pec- ca-|to- ri- bus|nunc et in|ho- ra _|mor- tis|no- strae.|A-|
 B,,8) | !fermata!E,8 |] %34
w: |men.|

